Flat-Remix-Dark/apps/scalable/mkvinfo.svg

<svg xmlns="http://www.w3.org/2000/svg" xmlns:xlink="http://www.w3.org/1999/xlink" width="384pt" height="384pt" version="1.1" viewBox="0 0 384 384">
 <defs>
  <filter id="alpha" width="100%" height="100%" x="0%" y="0%" filterUnits="objectBoundingBox">
   <feColorMatrix in="SourceGraphic" type="matrix" values="0 0 0 0 1 0 0 0 0 1 0 0 0 0 1 0 0 0 1 0"/>
  </filter>
  <mask id="mask1">
   <g filter="url(#alpha)">
    <rect width="384" height="384" x="0" y="0" style="fill:rgb(0%,0%,0%);fill-opacity:0.2"/>
   </g>
  </mask>
  <clipPath id="clip2">
   <rect width="384" height="384" x="0" y="0"/>
  </clipPath>
  <g id="surface8" clip-path="url(#clip2)">
   <path style="fill-rule:evenodd;fill:rgb(0%,0%,0%)" d="M 384 282 C 384 335.019531 341.019531 378 288 378 C 234.980469 378 192 335.019531 192 282 C 192 228.980469 234.980469 186 288 186 C 341.019531 186 384 228.980469 384 282 Z M 384 282"/>
  </g>
  <filter id="alpha-7" width="100%" height="100%" x="0%" y="0%" filterUnits="objectBoundingBox">
   <feColorMatrix in="SourceGraphic" type="matrix" values="0 0 0 0 1 0 0 0 0 1 0 0 0 0 1 0 0 0 1 0"/>
  </filter>
  <mask id="mask0-4">
   <g style="filter:url(#alpha-7)" filter="url(#alpha)">
    <rect style="fill:rgb(0%,0%,0%);fill-opacity:0.2" width="384" height="384" x="0" y="0"/>
   </g>
  </mask>
  <clipPath id="clip1-5">
   <rect width="384" height="384" x="0" y="0"/>
  </clipPath>
  <g id="surface5-2" clip-path="url(#clip1-5)">
   <path d="M 24 336 L 24 348 C 24 357.972656 32.027344 366 42 366 L 342 366 C 351.972656 366 360 357.972656 360 348 L 360 336 C 360 345.972656 351.972656 354 342 354 L 42 354 C 32.027344 354 24 345.972656 24 336 Z M 24 336" style="fill:rgb(0%,0%,0%)"/>
  </g>
  <mask id="mask1-5">
   <g style="filter:url(#alpha-7)" filter="url(#alpha)">
    <rect style="fill:rgb(0%,0%,0%);fill-opacity:0.101961" width="384" height="384" x="0" y="0"/>
   </g>
  </mask>
  <clipPath id="clip2-4">
   <rect width="384" height="384" x="0" y="0"/>
  </clipPath>
  <g id="surface8-7" clip-path="url(#clip2-4)">
   <path d="M 42 24 C 32.027344 24 24 32.027344 24 42 L 24 48 C 24 38.027344 32.027344 30 42 30 L 342 30 C 351.972656 30 360 38.027344 360 48 L 360 42 C 360 32.027344 351.972656 24 342 24 Z M 42 24" style="fill:rgb(100.000%,100.000%,100.000%)"/>
  </g>
 </defs>
 <g transform="translate(0,-3)">
  <use width="100%" height="100%" x="0" y="0" mask="url(#mask0-4)" xlink:href="#surface5-2"/>
  <path d="M 360,342 V 42 c 0,-9.941406 -8.05859,-18 -18,-18 H 42 c -9.941406,0 -18,8.058594 -18,18 v 300 c 0,9.94141 8.058594,18 18,18 h 300 c 9.94141,0 18,-8.05859 18,-18 z m 0,0" style="fill:#ffffff"/>
  <use width="100%" height="100%" x="0" y="0" mask="url(#mask1-5)" xlink:href="#surface8-7"/>
  <path d="m 45.623698,25.434245 c 4.860677,8.126953 3.920573,17.63151 -2.101563,21.250651 -6.022135,3.61914 -14.855468,-0.01237 -19.75,-8.119141 -4.860677,-8.126953 -3.920573,-17.63151 2.101563,-21.250651 6.022135,-3.61914 14.85612,0.01237 19.75,8.119141 z m 0,0" transform="scale(6)" style="fill:none;stroke:#4a4a4a;stroke-width:1.42999995"/>
  <path d="m 204,144 c -33.14453,0 -60,26.84766 -60,60 0,33.15234 26.84766,60 60,60 33.15234,0 60,-26.84766 60,-60 0,-33.15234 -26.84766,-60 -60,-60 z m -10.73047,31.70703 c 22.53906,0 40.97266,18.19531 40.97266,40.73438 0,22.53906 -18.4336,40.97265 -40.97266,40.97265 -22.53906,0 -40.73047,-18.43359 -40.73047,-40.97265 0,-22.53907 18.19141,-40.73438 40.73047,-40.73438 z m 0,0" style="fill:#2861bf"/>
  <path d="m 82.324219,197.95312 c 0,0 -24.101563,23.01563 -22.21875,37.38672 2.597656,19.82813 27.492187,22.98828 47.140621,22.76172 47.63672,-0.53906 217.3086,-56.20703 216.75782,-123 -0.17969,-21.58984 -39.01172,-23.49609 -39.01172,-22.21875 0,0 28.80078,7.22657 28.17578,21.13281 -2.34375,51.83594 -144.0625,110.03125 -207,111.625 C 92.957031,245.97656 74.570312,243.11719 69.3125,231 64.605469,220.14062 82.320312,197.94922 82.320312,197.94922 Z m 0,0" style="fill:#4a4a4a"/>
  <path d="m 276,138 c 0,16.57031 -13.42969,30 -30,30 -16.57031,0 -30,-13.42969 -30,-30 0,-16.57031 13.42969,-30 30,-30 16.57031,0 30,13.42969 30,30 z m 0,0" style="fill:#fd4747"/>
  <path d="m 192,234.01172 c 0,9.9414 -8.05859,18 -18,18 -9.94141,0 -18,-8.0586 -18,-18 0,-9.94141 8.05859,-18 18,-18 9.94141,0 18,8.05859 18,18 z m 0,0" style="fill:#4a4a4a"/>
 </g>
 <use width="100%" height="100%" x="0" y="0" mask="url(#mask1)" xlink:href="#surface8"/>
 <path d="m 384,276 c 0,53.01953 -42.98047,96 -96,96 -53.01953,0 -96,-42.98047 -96,-96 0,-53.01953 42.98047,-96 96,-96 53.01953,0 96,42.98047 96,96 z m 0,0" style="fill:#0aa15c;fill-rule:evenodd"/>
 <path d="m 270,270 h 36 v 72 h -36 z m 0,0" style="fill:#ffffff"/>
 <path d="m 270,216 h 36 v 36 h -36 z m 0,0" style="fill:#ffffff"/>
</svg>

<svg xmlns="http://www.w3.org/2000/svg" xmlns:xlink="http://www.w3.org/1999/xlink" width="384pt" height="384pt" version="1.1" viewBox="0 0 384 384">
 <defs>
  <filter id="alpha" width="100%" height="100%" x="0%" y="0%" filterUnits="objectBoundingBox">
   <feColorMatrix in="SourceGraphic" type="matrix" values="0 0 0 0 1 0 0 0 0 1 0 0 0 0 1 0 0 0 1 0"/>
  </filter>
  <mask id="mask0">
   <g filter="url(#alpha)">
    <rect width="384" height="384" x="0" y="0" style="fill:rgb(0%,0%,0%);fill-opacity:0.2"/>
   </g>
  </mask>
  <clipPath id="clip1">
   <rect width="384" height="384" x="0" y="0"/>
  </clipPath>
  <g id="surface5" clip-path="url(#clip1)">
   <path style="fill:rgb(0%,0%,0%)" d="M 360 198 C 360 290.785156 284.785156 366 192 366 C 99.214844 366 24 290.785156 24 198 C 24 105.214844 99.214844 30 192 30 C 284.785156 30 360 105.214844 360 198 Z M 360 198"/>
  </g>
  <mask id="mask1">
   <g filter="url(#alpha)">
    <rect width="384" height="384" x="0" y="0" style="fill:rgb(0%,0%,0%);fill-opacity:0.2"/>
   </g>
  </mask>
  <clipPath id="clip2">
   <rect width="384" height="384" x="0" y="0"/>
  </clipPath>
  <g id="surface8" clip-path="url(#clip2)">
   <path style="fill-rule:evenodd;fill:rgb(0%,0%,0%)" d="M 384 282 C 384 335.019531 341.019531 378 288 378 C 234.980469 378 192 335.019531 192 282 C 192 228.980469 234.980469 186 288 186 C 341.019531 186 384 228.980469 384 282 Z M 384 282"/>
  </g>
  <mask id="mask2">
   <g filter="url(#alpha)">
    <rect width="384" height="384" x="0" y="0" style="fill:rgb(0%,0%,0%);fill-opacity:0.101961"/>
   </g>
  </mask>
  <clipPath id="clip3">
   <rect width="384" height="384" x="0" y="0"/>
  </clipPath>
  <g id="surface11" clip-path="url(#clip3)">
   <path style="fill:rgb(100%,100%,100%)" d="M 192 24 C 99.214844 24 24 99.214844 24 192 C 24.03125 193.171875 24.074219 194.34375 24.128906 195.515625 C 25.484375 103.753906 100.226562 30.058594 192 30 C 283.378906 30.050781 357.957031 103.125 359.871094 194.484375 C 359.921875 193.65625 359.964844 192.828125 360 192 C 360 99.214844 284.785156 24 192 24 Z M 192 24"/>
  </g>
 </defs>
 <g>
  <use mask="url(#mask0)" xlink:href="#surface5"/>
  <path style="fill:rgb(71.764706%,76.470588%,80.392157%)" d="M 360 192 C 360 284.785156 284.785156 360 192 360 C 99.214844 360 24 284.785156 24 192 C 24 99.214844 99.214844 24 192 24 C 284.785156 24 360 99.214844 360 192 Z M 360 192"/>
  <path style="fill:none;stroke-width:1.43;stroke:rgb(29.803922%,29.803922%,29.803922%)" d="M 45.623698 25.434245 C 50.484375 33.561198 49.544271 43.065755 43.522135 46.684896 C 37.5 50.304036 28.666667 46.672526 23.772135 38.565755 C 18.911458 30.438802 19.851562 20.934245 25.873698 17.315104 C 31.895833 13.695964 40.729818 17.327474 45.623698 25.434245 Z M 45.623698 25.434245" transform="matrix(6,0,0,6,0,0)"/>
  <path style="fill:rgb(14.117647%,36.470588%,76.862745%)" d="M 204 144 C 170.855469 144 144 170.847656 144 204 C 144 237.152344 170.847656 264 204 264 C 237.152344 264 264 237.152344 264 204 C 264 170.847656 237.152344 144 204 144 Z M 193.269531 175.707031 C 215.808594 175.707031 234.242188 193.902344 234.242188 216.441406 C 234.242188 238.980469 215.808594 257.414062 193.269531 257.414062 C 170.730469 257.414062 152.539062 238.980469 152.539062 216.441406 C 152.539062 193.902344 170.730469 175.707031 193.269531 175.707031 Z M 193.269531 175.707031"/>
  <path style="fill:rgb(29.803922%,29.803922%,29.803922%)" d="M 82.324219 197.953125 C 82.324219 197.953125 58.222656 220.96875 60.105469 235.339844 C 62.703125 255.167969 87.597656 258.328125 107.246094 258.101562 C 154.882812 257.5625 324.554688 201.894531 324.003906 135.101562 C 323.824219 113.511719 284.992188 111.605469 284.992188 112.882812 C 284.992188 112.882812 313.792969 120.109375 313.167969 134.015625 C 310.824219 185.851562 169.105469 244.046875 106.167969 245.640625 C 92.957031 245.976562 74.570312 243.117188 69.3125 231 C 64.605469 220.140625 82.320312 197.949219 82.320312 197.949219 Z M 82.324219 197.953125"/>
  <path style="fill:rgb(96.470588%,27.843137%,27.843137%)" d="M 276 138 C 276 154.570312 262.570312 168 246 168 C 229.429688 168 216 154.570312 216 138 C 216 121.429688 229.429688 108 246 108 C 262.570312 108 276 121.429688 276 138 Z M 276 138"/>
  <path style="fill:rgb(29.803922%,29.803922%,29.803922%)" d="M 192 234.011719 C 192 243.953125 183.941406 252.011719 174 252.011719 C 164.058594 252.011719 156 243.953125 156 234.011719 C 156 224.070312 164.058594 216.011719 174 216.011719 C 183.941406 216.011719 192 224.070312 192 234.011719 Z M 192 234.011719"/>
  <use mask="url(#mask1)" xlink:href="#surface8"/>
  <path style="fill-rule:evenodd;fill:rgb(5.882353%,63.137255%,37.254902%)" d="M 384 276 C 384 329.019531 341.019531 372 288 372 C 234.980469 372 192 329.019531 192 276 C 192 222.980469 234.980469 180 288 180 C 341.019531 180 384 222.980469 384 276 Z M 384 276"/>
  <path style="fill:rgb(100%,100%,100%)" d="M 270 270 L 306 270 L 306 342 L 270 342 Z M 270 270"/>
  <path style="fill:rgb(100%,100%,100%)" d="M 270 216 L 306 216 L 306 252 L 270 252 Z M 270 216"/>
  <use mask="url(#mask2)" xlink:href="#surface11"/>
 </g>
</svg>
